dist/svg/static/tube-large.svg

<svg xmlns="http://www.w3.org/2000/svg" width="48" height="48" viewBox="0 0 48 48"><g fill="none" stroke="currentColor"><path d="M7 46l6-6M34.1 39.9l6 6.1M23.5 14.5h9c1.7 0 3 1.4 3 3v6h-12v-9zM23.5 23.5h-12v-6c0-1.7 1.3-3 3-3h9v9zM14 29.5a2.5 2.5 0 1 1 0 5 2.5 2.5 0 0 1 0-5z"/><path d="M27 11.5h6.5c2.8 0 5 2.2 5 5v18c0 1.7-1.3 3-3 3h-24c-1.7 0-3-1.3-3-3v-18c0-2.8 2.2-5 5-5H20s0-2 3.5-2 3.5 2 3.5 2z"/><path d="M33 29.5a2.5 2.5 0 1 1 0 5 2.5 2.5 0 0 1 0-5zM13 5.5h21M18.4 5.5l4.065 4.062M28.4 5.5l-4.046 4.044"/></g></svg>

<?xml version="1.0" encoding="UTF-8" standalone="no"?>
<svg width="48px" height="48px" viewBox="0 0 48 48" version="1.1" xmlns="http://www.w3.org/2000/svg" xmlns:xlink="http://www.w3.org/1999/xlink">
    <!-- Generator: sketchtool 46.2 (44496) - http://www.bohemiancoding.com/sketch -->
    <title>tube-large</title>
    <desc>Created with sketchtool.</desc>
    <defs></defs>
    <g id="icons-published" stroke="none" stroke-width="1" fill="none" fill-rule="evenodd">
        <g id="briefing" transform="translate(-1728.000000, -2202.000000)"></g>
        <g id="tube-large" stroke="#000000">
            <path d="M7,46 L13,40 L7,46 Z M34.1,39.9 L40.1,46 L34.1,39.9 Z M23.5,14.5 L32.5,14.5 C34.2,14.5 35.5,15.9 35.5,17.5 L35.5,23.5 L23.5,23.5 L23.5,14.5 Z M23.5,23.5 L11.5,23.5 L11.5,17.5 C11.5,15.8 12.8,14.5 14.5,14.5 L23.5,14.5 L23.5,23.5 Z M14,29.5 C15.4,29.5 16.5,30.6 16.5,32 C16.5,33.4 15.4,34.5 14,34.5 C12.6,34.5 11.5,33.4 11.5,32 C11.5,30.6 12.6,29.5 14,29.5 Z" id="Shape"></path>
            <path d="M27,11.5 L33.5,11.5 C36.3,11.5 38.5,13.7 38.5,16.5 L38.5,34.5 C38.5,36.2 37.2,37.5 35.5,37.5 L11.5,37.5 C9.8,37.5 8.5,36.2 8.5,34.5 L8.5,16.5 C8.5,13.7 10.7,11.5 13.5,11.5 L20,11.5 C20,11.5 20,9.5 23.5,9.5 C27,9.5 27,11.5 27,11.5 Z" id="Shape"></path>
            <path d="M33,29.5 C34.4,29.5 35.5,30.6 35.5,32 C35.5,33.4 34.4,34.5 33,34.5 C31.6,34.5 30.5,33.4 30.5,32 C30.5,30.6 31.6,29.5 33,29.5 Z M13,5.5 L34,5.5 L13,5.5 Z M18.4,5.5 L22.5,9.6 L18.4,5.5 Z M28.4,5.5 L24.4,9.5 L28.4,5.5 Z" id="Shape"></path>
        </g>
    </g>
</svg>
